assets/Wrench/Flat/wrench_flat.svg

<svg width="32" height="32" viewBox="0 0 32 32" fill="none" xmlns="http://www.w3.org/2000/svg">
<path d="M3.2359 5.89697L6.00835 8.66735C6.26317 8.92198 6.66069 8.92198 6.91551 8.66735L8.66867 6.91549C8.92349 6.66086 8.92349 6.26364 8.66867 6.00901L5.89623 3.23862C5.53948 2.88214 5.71276 2.28121 6.19182 2.15899C7.96537 1.72102 9.92239 2.18954 11.329 3.54418C12.8928 5.05575 13.3617 7.28456 12.7243 9.22843L22.7212 19.2909C24.6418 18.6406 26.8528 19.0802 28.387 20.6132C29.7936 22.0188 30.2828 24.0049 29.8445 25.8178C29.7222 26.2864 29.1208 26.4595 28.7641 26.103L25.9917 23.3326C25.7368 23.078 25.3393 23.078 25.0845 23.3326L23.3313 25.0845C23.0765 25.3391 23.0765 25.7364 23.3313 25.991L26.1038 28.7614C26.4605 29.1179 26.2872 29.7188 25.8082 29.841C24.0346 30.279 22.0776 29.8105 20.671 28.4558C19.1243 26.9608 18.6487 24.7642 19.2552 22.8355L9.2093 12.7321C7.30512 13.3486 5.12872 12.9014 3.61304 11.3868C2.20643 9.98124 1.71717 7.99512 2.15546 6.18215C2.27778 5.71363 2.87915 5.54048 3.2359 5.89697Z" fill="#B4ACBC"/>
</svg>

<svg xmlns="http://www.w3.org/2000/svg" width="32" height="32" fill="none"><path fill="#B4ACBC" d="m3.236 5.897 2.772 2.77a.634.634 0 0 0 .908 0l1.753-1.752a.633.633 0 0 0 0-.906l-2.773-2.77a.644.644 0 0 1 .296-1.08 5.508 5.508 0 0 1 5.137 1.385c1.564 1.512 2.033 3.74 1.395 5.684l9.997 10.063a5.51 5.51 0 0 1 7.123 6.527.646.646 0 0 1-1.08.285l-2.772-2.77a.634.634 0 0 0-.908 0l-1.753 1.752a.633.633 0 0 0 0 .906l2.773 2.77a.644.644 0 0 1-.296 1.08 5.508 5.508 0 0 1-5.137-1.385 5.514 5.514 0 0 1-1.416-5.62L9.21 12.732a5.51 5.51 0 0 1-7.054-6.55.646.646 0 0 1 1.08-.285Z"/></svg>
